X: 33580
T: Rakes Of Kildare, The
R: jig
M: 6/8
K: Adorian
|:EAA AGA|cde eed|cde ede|cAE G2D|
EAA AGA|cde aag|e2d cAG|1 ABG AGA:|2 ABG A(3Bcd||
|:eaa gag|fed eAB|cde ggg|edB GGG|
EAA AGA|cde aag|e2d cAG|1 ABG A(3Bcd:|2 ABG A2G||

